X:448
T: DER MAI TRITT EIN MIT FREUDEN
N: E0381
O: Europa, Mitteleuropa, Deutschland
R: Liebes - Lied, Jahreszeiten, Fruehling
M: 3/4
L: 1/8
K: D
A,2 | D3EFD | A,2F,2
A,2 | B,3CDB, | A,4
F,2 | G,2B,2A,G, | F,2A,2
D2 | FED2C2 | D4
DE | F2D2A2 | E3D
C2 | D2B,2E2 | C2A,2z
A, | B,3CDB, | A,2D2
F2 | FED2C2 | D4

